//ICLC Rehearsal 6thOct16

//warp
//saw
//losin
//harmonics
//swells
//beats
//rhythmic sines
//build

//movement functions
(
OSCdef(\x, {|msg| }, \x);
OSCdef(\y, {|msg| }, \y);
OSCdef(\z, {|msg| }, \z);
)

// LIGHT FUNCTIONS
//r
OSCdef(\red,{|msg| b.sendMsg("/r/",d[\l].(msg[1],d[\redmin],d[\redmax]).asInt)},\x);
//g
OSCdef(\green,{|msg| b.sendMsg("/g/",d[\l].(msg[1],d[\greenmin],d[\greenmax]).asInt)},\y);
//b
OSCdef(\blue,{|msg| b.sendMsg("/b/",d[\l].(msg[1],d[\bluemin],d[\bluemax]).asInt)},\x1);
//m
OSCdef(\master,{|msg| b.sendMsg("/m/",d[\l].(msg[1],d[\mastermin],d[\mastermax]).asInt)},\x);


////////////////////////////////////////////////////////////////////////////////////////
////////////////////////////////////////////////////////////////////////////////////////
////////////////////////////////////////////////////////////////////////////////////////
////////////////////////////////////////////////////////////////////////////////////////

OSCdef(\x, {|msg| }, \x);
OSCdef(\y, {|msg| }, \y);










///////////////////////////////////////////////////////////////////////////////////
///////////////////////////////////////////////////////////////////////////////////
///////////////////////////////////////////////////////////////////////////////////
///////////////////////////////////////////////////////////////////////////////////
///////////////////////////////////////////////////////////////////////////////////
(
OSCFunc({|msg| if (msg[1] == 1023, {OSCdef(\red,{b.sendMsg("/r/",0)},\x);
OSCdef(\green,{b.sendMsg("/g/",0)},\x);
OSCdef(\blue,{b.sendMsg("/b/",0)},\x);
OSCdef(\master,{b.sendMsg("/m/",0)},\x);
Server.freeAll;
b.sendMsg("/r/",0);
b.sendMsg("/g/",0);
b.sendMsg("/b/",0);
b.sendMsg("/b/",0);})},\gsr)
)
